X:1
T:Ach klagen wir zu Gott
T:Ach klagen wir zu Gott
T:Willem jan Hanegraaf
T:© wjhanegraaf 2007
T:© wjhanegraaf 2007
T:© wjhanegraaf 2007
C:Willem jan Hanegraaf
Z:© wjhanegraaf 2007
%%score [ 1 2 3 4 ]
L:1/8
Q:1/4=60
M:4/4
K:Bb
V:1 treble nm="Soprano" snm="S"
V:2 treble nm="Alto" snm="A"
V:3 treble-8 nm="Tenor" snm="T"
V:4 bass nm="Bass" snm="B"
V:1
!p! d6 G2- | G2 ^F4 B2- | B2 A4 c2- | c4 B2 A2 | G2 G6 |!f! d6 G2- | G2 ^F4 B2- | B2 A4 c2- | %8
w: Ach Kla|_ gen Kla|_ gen Kla|_ gen wir|zu Gott|Ach kla|_ gen kla|_ gen kla|
 c4 B2 A2 | G2 G6 |!mp! G8 | ^F8 | G8 | ^F8 | G8 | G8 | G8 | ^F8 | d4 A4 | B4 ^F4 | G4 ^F4 | G8 | %22
w: _ gen wir|zu gott|kla|gen|kla|gen|kla|gen|kla|gen|kla gen|kla gen|wir zu|gott|
!p! d6 G2- | G2 ^F4 B2- | B2 A4 c2- | c4 B2 A2 | G2 G6 |!f! d6 G2- | G2 ^F4 B2- | B2 A4 c2- | %30
w: Ach Kla|_ gen Kla|_ gen Kla|_ gen wir|zu Gott|Ach kla|_ gen kla|_ gen kla|
 c4 B2 A2 | G2 G6 |] %32
w: _ gen wir|zu gott|
V:2
!p! B6 D2- | D6 G2- | G2 ^F4 G2- | G4 G2 ^F2 | ^F2 D6 |!f! B6 D2- | D6 G2- | G2 ^F4 G2- | %8
w: Ach kla|_ kla|_ gen kla|_ gen wir|zu gott|Ach kla|_ kla|_ gen kla|
 G4 G2 ^F2 | ^F2 D6 |!mp! D8 | D8 | D8 | D8 | E8 | D8 | C8 | D8 | G4 ^F4 | G4 D4 | E4 D4 | D8 | %22
w: _ gen wir|zu gott|kla|gen|kla|gen|kla|gen|kla|gen|kla gen|kla gen|wir zu|gott|
!p! B6 D2- | D6 G2- | G2 ^F4 G2- | G4 G2 ^F2 | ^F2 D6 |!f! B6 D2- | D6 G2- | G2 ^F4 G2- | %30
w: Ach kla|_ kla|_ gen kla|_ gen wir|zu gott|Ach kla|_ kla|_ gen kla|
 G4 G2 ^F2 | ^F2 D6 |] %32
w: _ gen wir|zu gott|
V:3
!p! B6 B2- | B2 A4 d2- | d2 d4 e2- | e4 d2 d2 | d2 B6 |!f! B6 B2- | B2 A4 d2- | d2 d4 e2- | %8
w: Ach kla|_ gen kla|_ gen kla|_ gen wir|zu gott|Ach kla|_ gen kla|_ gen kla|
 e4 d2 d2 | d2 B6 |!mp! B8 | A8 | B8 | A8 | c8 | B8 | c8 | A8 | B4 d4 | d4 A4 | c4 A4 | B8 | %22
w: _ gen wir|zu gott|kla|gen|kla|gen|kla|gen|kla|gen|kla gen|kla gen|wir zu|gott|
!p! B6 B2- | B2 A4 d2- | d2 d4 e2- | e4 d2 d2 | d2 B6 |!f! B6 B2- | B2 A4 d2- | d2 d4 e2- | %30
w: Ach kla|_ gen kla|_ gen kla|_ gen wir|zu gott|Ach kla|_ gen kla|_ gen kla|
 e4 d2 d2 | d2 B6 |] %32
w: _ gen wir|zu gott|
V:4
!p! G,6 D,2- | D,6 G,2- | G,2 D,4 C,2- | D,2- E,2- G,2- D,2 | A,,2- G,,6 |!f! G,6 D,2- | D,6 G,2- | %7
w: Ach kla|_ kla|_ gen kla|_ _ _ wir|zu gott|Ach kla|_ kla|
 G,2 D,4 C,2- | D,2- E,2- G,2- D,2 | A,,2- G,,6 |!mp! G,,2- A,,2 B,,2- G,,2 | D,2- C,2 B,,2- A,,2 | %12
w: _ gen kla|_ _ _ wir|zu gott|kla _ _ _|gen _ _ _|
 G,,2- A,,2 B,,2- G,,2 | D,2- C,2 B,,2- A,,2 | C,2- C,2 E,2- C,2 | G,,2- A,,2 B,,2- G,,2 | %16
w: kla _ _ _|gen _ _ _|kla _ _ _|gen _ _ _|
 C,2- D,2 E,2- C,2 | D,2- C,2 B,,2 A,,2 | G,4 D,4 | G,4 D,4 | G,4 D,4 | G,8 |!p! G,6 D,2- | %23
w: kla _ _ _|gen _ _ _|kla gen|kla gen|wir zu|gott|Ach kla|
 D,6 G,2- | G,2 D,4 C,2- | D,2- E,2- G,2- D,2 | A,,2- G,,6 |!f! G,6 D,2- | D,6 G,2- | G,2 D,4 C,2 | %30
w: _ kla|_ gen kla|_ _ _ wir|zu gott|Ach kla|_ kla|_ gen kla|
 D,2- E,2 G,2 D,2 | A,,2 G,,6 |] %32
w: _ _ _ wir|zu gott|

